X:248
T:Fairy Reel, The (Irish)
R:reel
Z:Transcribed by Philippe Varlet
M:C
L:1/8
K:G
~B3 A GBdB|{d}cBAG FGAc| BG~G2 cBAg|fdaf {a}gedc|
~B3 A GBdB|{d}cBAG FGAc| BG~G2 cBAG|1 FDEF G3 A :|2 FDEF GABc||
~d3 g e3 d|cA A/A/A d3 c|BG~G2 cBAg|fdaf {a}gfge|
~d3 g e3 d|cA A/A/A d3 c|BG~G2 cBAG|1 FDEF GABc :|2 FDEF G4||

